src/symbolic/categories/preferences-desktop-online-accounts-symbolic.svg

<svg xmlns="http://www.w3.org/2000/svg" width="16" height="16"><path d="M8 1a7 7 0 0 0-7 7 7 7 0 0 0 7 7 7 7 0 0 0 7-7 7 7 0 0 0-7-7zm0 3c2.21 0 4 1.79 4 4v.5a1.498 1.498 0 0 1-2.65.96C9 9.79 8.52 10 8 10c-1.1 0-2-.9-2-2s.9-2 2-2 2 .9 2 2v.5c0 .28.22.5.5.5s.5-.22.5-.5V8c0-1.66-1.34-3-3-3S5 6.34 5 8s1.34 3 3 3h2.5s.5 0 .5.5c-.03.5-.5.5-.5.5H8c-2.21 0-4-1.79-4-4s1.79-4 4-4zm0 3c-.55 0-1 .45-1 1s.45 1 1 1 1-.45 1-1-.45-1-1-1z" fill="#444"/></svg>

<svg xmlns="http://www.w3.org/2000/svg" width="16" height="16" version="1.1">
 <path style="fill:#444444" d="M 8 1 A 7 7 0 0 0 1 8 A 7 7 0 0 0 8 15 A 7 7 0 0 0 15 8 A 7 7 0 0 0 8 1 z M 8 4 C 10.21 4 12 5.79 12 8 L 12 8.5 C 12 9.33 11.33 10 10.5 10 C 10.06 10 9.6396 9.8009 9.3496 9.4609 C 8.9996 9.7909 8.52 10 8 10 C 6.9 10 6 9.1 6 8 C 6 6.9 6.9 6 8 6 C 9.1 6 10 6.9 10 8 L 10 8.5 C 10 8.78 10.22 9 10.5 9 C 10.78 9 11 8.78 11 8.5 L 11 8 C 11 6.34 9.66 5 8 5 C 6.34 5 5 6.34 5 8 C 5 9.66 6.34 11 8 11 L 10.5 11 C 10.5 11 11 11 11 11.5 C 10.97 12 10.5 12 10.5 12 L 8 12 C 5.79 12 4 10.21 4 8 C 4 5.79 5.79 4 8 4 z M 8 7 C 7.45 7 7 7.45 7 8 C 7 8.55 7.45 9 8 9 C 8.55 9 9 8.55 9 8 C 9 7.45 8.55 7 8 7 z"/>
</svg>
